images/github.svg

<?xml version="1.0" encoding="UTF-8" standalone="no"?>
<svg width="200px" height="193px" viewBox="0 0 200 193" version="1.1" xmlns="http://www.w3.org/2000/svg" xmlns:xlink="http://www.w3.org/1999/xlink">
    <!-- Generator: Sketch 41 (35326) - http://www.bohemiancoding.com/sketch -->
    <title>github</title>
    <desc>Created with Sketch.</desc>
    <defs></defs>
    <g id="Page-1" stroke="none" stroke-width="1" fill="none" fill-rule="evenodd">
        <g id="github" fill="#D7B740">
            <g id="Capa_1">
                <path d="M186.520196,48.7852871 C177.736697,33.5398849 165.336462,21.8517432 150.352845,13.2126819 C134.852552,4.57362067 118.318906,0 100.23523,0 C82.1515546,0 65.6179084,4.57362067 50.1176151,13.2126819 C34.6173218,21.8517432 22.7337635,34.048065 13.950264,48.7852871 C5.16676444,64.0306894 0.516676444,80.2924517 0.516676444,98.0787543 C0.516676444,119.422317 6.71679377,138.73316 19.6337049,156.011283 C32.550616,173.289405 48.5675858,184.977547 68.7179671,191.583888 C71.3013493,192.092068 72.8513786,191.583888 73.8847315,190.567528 C74.9180844,189.551168 75.4347609,188.026627 75.4347609,186.502087 L75.4347609,179.387566 L75.4347609,168.207605 L72.3347022,168.715785 C70.2679964,169.223965 68.2012906,169.223965 65.101232,169.223965 C62.0011733,169.223965 59.4177911,168.715785 55.801056,168.207605 C52.7009973,167.699425 49.6009386,166.174884 47.0175564,164.142164 C44.4341742,162.109444 42.3674684,159.568543 41.3341155,156.519463 L39.7840862,153.470382 C38.7507333,151.437662 37.7173804,149.404942 35.6506746,146.864041 C33.5839689,144.323141 32.0339395,142.798601 29.9672338,141.782241 L28.9338809,141.274061 C28.4172044,140.765881 27.900528,140.257701 27.3838515,139.74952 C26.8671751,139.24134 26.3504987,138.73316 26.3504987,137.7168 C25.8338222,137.20862 26.3504987,136.70044 26.8671751,136.19226 C27.3838515,135.68408 28.9338809,135.68408 30.4839102,135.68408 L33.0672924,136.19226 C34.6173218,136.70044 37.200704,137.7168 39.2674098,139.24134 C41.850792,140.765881 43.9174978,143.306781 45.4675271,145.847681 C47.5342329,149.404942 50.1176151,151.945842 52.7009973,153.978563 C55.2843795,156.011283 58.3844382,156.519463 60.9678204,156.519463 C64.0678791,156.519463 66.1345849,156.519463 68.2012906,156.011283 C70.2679964,155.503103 72.3347022,154.994923 73.8847315,153.978563 C74.9180844,148.388582 76.9847902,143.814961 80.0848489,140.765881 C74.9180844,140.257701 70.7846729,139.24134 66.6512613,138.22498 C62.5178497,137.20862 58.3844382,135.68408 54.2510266,133.143179 C50.1176151,130.602279 46.50088,128.061379 43.9174978,124.504118 C41.3341155,120.946858 38.7507333,116.373237 37.200704,111.291436 C37.200704,106.717816 36.1673511,100.619655 36.1673511,92.9969536 C36.1673511,82.8333521 39.7840862,73.6861108 46.50088,66.5715897 C43.4008213,58.9488886 43.4008213,50.3098274 47.5342329,40.6544059 C50.1176151,39.6380458 53.7343502,40.6544059 58.9011146,42.1789462 C64.0678791,44.2116665 67.6846142,45.7362067 69.75132,47.2607469 C71.8180257,48.7852871 73.8847315,49.8016473 75.4347609,50.8180074 C83.701584,48.7852871 91.9684071,47.2607469 100.23523,47.2607469 C109.01873,47.2607469 117.285553,48.2771071 125.035699,50.8180074 L130.202464,47.768927 C133.819199,45.7362067 137.435934,43.7034864 142.086022,42.1789462 C146.73611,40.6544059 150.352845,40.1462259 152.419551,40.6544059 C156.552963,50.3098274 156.552963,58.9488886 153.452904,66.5715897 C160.169698,73.6861108 163.786433,82.8333521 163.786433,92.9969536 C163.786433,100.111475 162.75308,106.717816 161.203051,112.307796 C159.653021,117.897777 157.069639,122.471398 154.486257,125.520478 C151.902875,129.077739 148.286139,131.618639 144.152728,134.15954 C140.019316,136.70044 135.885905,138.22498 131.752493,139.24134 C127.619082,140.257701 123.48567,141.274061 118.318906,141.782241 C122.968994,145.847681 125.035699,151.437662 125.035699,160.076723 L125.035699,187.010267 C125.035699,188.534808 125.552376,190.059348 126.585729,191.075708 C127.619082,192.092068 129.169111,192.600248 131.752493,192.092068 C151.902875,185.485727 168.436521,173.797585 180.836755,156.519463 C193.753667,139.24134 199.953784,119.930498 199.953784,98.5869344 C199.953784,80.2924517 195.303696,64.0306894 186.520196,48.7852871 L186.520196,48.7852871 Z" id="Shape"></path>
            </g>
        </g>
    </g>
</svg>

<svg width="200" height="193" viewBox="0 0 200 193" xmlns="http://www.w3.org/2000/svg"><title>github</title><path d="M186.52 48.785c-8.783-15.245-21.184-26.933-36.167-35.572C134.853 4.573 118.319 0 100.235 0 82.152 0 65.618 4.574 50.118 13.213S22.734 34.048 13.95 48.785C5.167 64.031.517 80.292.517 98.08c0 21.343 6.2 40.654 19.117 57.932 12.917 17.278 28.934 28.967 49.084 35.573 2.583.508 4.133 0 5.167-1.016 1.033-1.017 1.55-2.541 1.55-4.066v-18.294l-3.1.508c-2.067.508-4.134.508-7.234.508-3.1 0-5.683-.508-9.3-1.016-3.1-.509-6.2-2.033-8.783-4.066-2.584-2.033-4.65-4.573-5.684-7.623l-1.55-3.049c-1.033-2.032-2.067-4.065-4.133-6.606-2.067-2.54-3.617-4.065-5.684-5.082l-1.033-.508-1.55-1.524c-.517-.509-1.034-1.017-1.034-2.033-.516-.508 0-1.017.517-1.525s2.067-.508 3.617-.508l2.583.508c1.55.508 4.134 1.525 6.2 3.05 2.584 1.524 4.65 4.065 6.2 6.606 2.067 3.557 4.65 6.098 7.234 8.13 2.583 2.033 5.683 2.541 8.267 2.541 3.1 0 5.167 0 7.233-.508 2.067-.508 4.134-1.016 5.684-2.032 1.033-5.59 3.1-10.164 6.2-13.213-5.167-.508-9.3-1.525-13.434-2.541-4.133-1.016-8.267-2.54-12.4-5.082-4.133-2.54-7.75-5.082-10.334-8.639-2.583-3.557-5.166-8.13-6.716-13.213 0-4.573-1.034-10.671-1.034-18.294 0-10.164 3.617-19.31 10.334-26.425-3.1-7.623-3.1-16.262 1.033-25.918 2.584-1.016 6.2 0 11.367 1.525 5.167 2.033 8.784 3.557 10.85 5.082 2.067 1.524 4.134 2.54 5.684 3.557 8.267-2.033 16.533-3.557 24.8-3.557 8.784 0 17.05 1.016 24.8 3.557l5.167-3.05c3.617-2.032 7.234-4.065 11.884-5.59 4.65-1.524 8.267-2.032 10.334-1.524 4.133 9.656 4.133 18.295 1.033 25.918 6.717 7.114 10.333 16.261 10.333 26.425 0 7.114-1.033 13.72-2.583 19.31-1.55 5.59-4.133 10.164-6.717 13.213-2.583 3.558-6.2 6.099-10.333 8.64-4.134 2.54-8.267 4.065-12.4 5.081-4.134 1.017-8.267 2.033-13.434 2.541 4.65 4.066 6.717 9.656 6.717 18.295v26.933c0 1.525.516 3.05 1.55 4.066 1.033 1.016 2.583 1.524 5.166 1.016 20.15-6.606 36.685-18.294 49.085-35.573 12.917-17.278 19.117-36.589 19.117-57.932 0-18.295-4.65-34.556-13.434-49.802z" fill="#D7B740" fill-rule="evenodd"/></svg>
